X:1
T:Gaudeamus igitur
%%score 1 { 2 | 3 }
L:1/8
Q:1/4=97
M:3/4
K:Bb
V:1 treble nm="Voice"
V:2 treble nm="Piano"
V:3 bass 
V:1
"^Regulier" B>F F2 B2 | G>G G4 | A>B c2 A2 | (Bd) B4 :: A>B c2 c2 | dB c2 c2 :| B>A (Ge) (dc) | %7
w: 1.Gau\- de\- a\- mus|i\- gi\- tur|iu\- ve\- nes dum|su\- * mus;|~post iu- cun- dam|iu ven- tu\- tem~|nos ha\- be\- * bit *|
w: ||||post mo- les- tam|se- nec- tu- tem||
 (d2 c2) B2 | B>A Ge dc | (f2 A2) B2- | B2 z4 |] %11
w: hu\- * mus|nos ha\- be\- * bit *|hu\- * mus||
w: ||||
V:2
 [DFB]>[B,F] [B,F]2 [DFB]2 | [B,EG]>[B,EG] [B,EG]4 | [CEA]>[DB] [EAc]2 [CEFA]2 | %3
 [DFB][FBd] [DFB]4 :: [CFA]>[FGB] [FAc]2 [FAc]2 | [FBd][FB] [FAc]2 [FAc]2 :| %6
 [B,FB]>[B,FA] [B,EG][Ge] [DFB][EGc] | [FBd]2 [CEA]2 [B,DB]2 | %8
 [B,FB]>[B,FA] [B,EG][Ge] [DFB][EGc] | [Bf]2 [CEFA]2 [DFB]2- |!ped! [DFB]2 z4!ped-up! |] %11
V:3
 [B,,,B,,]>[D,,D,] [D,,D,]2 [B,,,B,,]2 | [E,,E,]>[E,,E,] [E,,E,]4 | %2
 [F,,F,]>[F,,F,] [F,,F,]2 [F,,F,]2 | [B,,,B,,]2 [B,,,B,,]4 :: [F,,F,]>[F,,F,] [F,,F,]2 [F,,F,]2 | %5
 [B,,,B,,][D,,D,] [F,,F,]2 [F,,F,]2 :| [D,,D,]>[D,,D,] [E,,E,][C,,C,] [F,,F,][E,,E,] | %7
 [F,,F,]2 [^F,,^F,]2 [G,,G,]2 | [D,,D,]>[D,,D,] [E,,E,][C,,C,] [F,,F,][E,,E,] | %9
 [D,,D,]2 [F,,F,]2 [B,,,B,,]2- | [B,,,B,,]2 z4 |] %11

